src/parts/eyes/Hearts.svg

<svg>
  <g transform="translate(76.000000, 82.000000)">
    <g
      class="CustomColor"
      transform="translate(0.000000, 8.000000)"
      opacity="0.8"
      fillRule="nonzero"
      fill="#FF5353"
    >
      <path
        id="Heart"
        d="M35.9583333,10 C33.4074091,10 30.8837273,11.9797894 29.5,13.8206358 C28.1106364,11.9797894 25.5925909,10 23.0416667,10 C17.5523182,10 14,13.3341032 14,17.6412715 C14,23.3708668 18.4118636,26.771228 23.0416667,30.376724 C24.695,31.6133636 27.8223436,34.7777086 28.2083333,35.470905 C28.5943231,36.1641015 30.3143077,36.1885229 30.7916667,35.470905 C31.2690257,34.7532872 34.3021818,31.6133636 35.9583333,30.376724 C40.5853182,26.771228 45,23.3708668 45,17.6412715 C45,13.3341032 41.4476818,10 35.9583333,10 Z"
      />
      <path
        id="Heart"
        d="M88.9583333,10 C86.4074091,10 83.8837273,11.9797894 82.5,13.8206358 C81.1106364,11.9797894 78.5925909,10 76.0416667,10 C70.5523182,10 67,13.3341032 67,17.6412715 C67,23.3708668 71.4118636,26.771228 76.0416667,30.376724 C77.695,31.6133636 80.8223436,34.7777086 81.2083333,35.470905 C81.5943231,36.1641015 83.3143077,36.1885229 83.7916667,35.470905 C84.2690257,34.7532872 87.3021818,31.6133636 88.9583333,30.376724 C93.5853182,26.771228 98,23.3708668 98,17.6412715 C98,13.3341032 94.4476818,10 88.9583333,10 Z"
      />
    </g>
  </g>
</svg>

<svg>
  <g fill="#FF5353" class="CustomColor" opacity=".8" transform="translate(76 90)">
    <path id="Heart" d="M35.958 10c-2.55 0-5.074 1.98-6.458 3.82-1.39-1.84-3.907-3.82-6.458-3.82C17.552 10 14 13.334 14 17.641c0 5.73 4.412 9.13 9.042 12.736 1.653 1.236 4.78 4.4 5.166 5.094.386.693 2.106.718 2.584 0 .477-.718 3.51-3.858 5.166-5.094C40.585 26.77 45 23.37 45 17.64c0-4.306-3.552-7.64-9.042-7.64Zm53 0c-2.55 0-5.074 1.98-6.458 3.82-1.39-1.84-3.907-3.82-6.458-3.82C70.552 10 67 13.334 67 17.641c0 5.73 4.412 9.13 9.042 12.736 1.653 1.236 4.78 4.4 5.166 5.094.386.693 2.106.718 2.584 0 .477-.718 3.51-3.858 5.166-5.094C93.585 26.77 98 23.37 98 17.64c0-4.306-3.552-7.64-9.042-7.64Z"/>
  </g>
</svg>
